svgs/sharp-regular/arrow-up-1-9.svg

<svg xmlns="http://www.w3.org/2000/svg" viewBox="0 0 576 512"><!--! Font Awesome Pro 6.6.0 by @fontawesome - https://fontawesome.com License - https://fontawesome.com/license (Commercial License) Copyright 2024 Fonticons, Inc. --><path d="M360 32l0 48 24 0 24 0 0 96-24 0-24 0 0 48 24 0 48 0 48 0 24 0 0-48-24 0-24 0 0-120 0-24-24 0-48 0-24 0zM160 33.3l-17 17-96 96-17 17L64 197.1l17-17 55-55L136 456l0 24 48 0 0-24 0-330.9 55 55 17 17 33.9-33.9-17-17-96-96-17-17zM464 344a40 40 0 1 1 -80 0 40 40 0 1 1 80 0zm48 0c0-48.6-39.4-88-88-88s-88 39.4-88 88c0 45 33.7 82.1 77.3 87.4l-24.8 34.7-10 13.9 59 0 56.1-78.5c12-16.8 18.4-36.9 18.4-57.5z"/></svg>

<svg xmlns="http://www.w3.org/2000/svg" viewBox="0 0 576 512"><!--! Font Awesome Pro 6.4.2 by @fontawesome - https://fontawesome.com License - https://fontawesome.com/license (Commercial License) Copyright 2023 Fonticons, Inc. --><path d="M360 32V80h24 24v96H384 360v48h24 48 48 24V176H480 456V56 32H432 384 360zM160 33.3l-17 17-96 96-17 17L64 197.1l17-17 55-55V456v24h48V456 125.1l55 55 17 17 33.9-33.9-17-17-96-96-17-17zM464 344a40 40 0 1 1 -80 0 40 40 0 1 1 80 0zm48 0c0-48.6-39.4-88-88-88s-88 39.4-88 88c0 45 33.7 82.1 77.3 87.4l-24.8 34.7-10 13.9h59l56.1-78.5c12-16.8 18.4-36.9 18.4-57.5z"/></svg>
